X:640
T: SCHOENSTER HERR JESU
N: E2009
O: Europa, Mitteleuropa, Deutschland, Westfalen
R: geistlich, Gebet, Jesus - Lied
M: 4/4
L: 1/8
K: A
 | e2ABG2G2 | AB=cde2e2 |
=g2c2de=fe | d3=cc4 |
e2dcd2d2 | =f2ede2e2 |
G2A2E2=cd | B3AA4 |
e2d=cd2d2 | =f2ede2e2 |
G2A2E2=cd | B3AA4

@@@ Tune index: 5324
